X: 30524
T: Ómós Do Na Mairbh
R: barndance
M: 4/4
K: Cmajor
c/d/|e3ee2e/d/e/f/|d3d d3c/A/|c3cB2B/A/B/c/|A3AA3c/d/|
e3ee2ae|e/f/d3-d3c/A/|G3G/A/ c2cc-|c4-c2d/e/g/e/|
a3e e2 f>e|d3d d3c/A/|c2c2 d2 d/c/d/e/|G4-G2 cB|A2 ed-d4|
d2gc-c2c/d/e|A2 c/d/e G2G/A/c|1 c4-c3:|2 c4-c2||
|:d/e/g/e/|a3e e2ae|e/f/d3-dd ae|e/f/d3-dd d/c/d/e/|e4-e2d/e/g/e/|
a3e e2 f>e|d3d d3c/A/|G3G/A/ c2cc-|c4-c2 d/e/g/e/|
a3e e2 f>e|d3d d3c/A/|c2c2 d2 d/c/d/e/|G4-G2 cB|A2 ed-d4|
d2gc-c2c/d/e|A2 c/d/e G2G/A/c|1 c4-c2:|2 c4-c3||

